X: 9
T:Mississippi Sawyer (embellished version)
M:4/4
L:1/8
C:
S:AABB form
R:Key of D
K:D
||:AFAFAFAF|A2A2B2A2|GEGEGEGE|G2G2A2G2|FDFDFDFD|F2F2G2F2|EDCA,B,CDE|D2D2
:|!
||:DEFEDEFE|DEFGA2A2|E2C2A,2C2|E2C2A,2C2|FEDEFEDE|FEDEA2A2|GFEDCA,B,C|D4
:|
